assets/img/braze_icons/lock-keyhole-square.svg

<svg fill="none" height="24" viewBox="0 0 24 24" width="24" xmlns="http://www.w3.org/2000/svg"><path clip-rule="evenodd" d="m17.8385 2h-11.67704c-.52713-.00002-.98192-.00003-1.35649.03057-.39534.0323-.78856.10362-1.16694.29641-.56449.28762-1.02343.74656-1.31105 1.31105-.19279.37838-.26411.7716-.29641 1.16694-.0306.37457-.03059.82932-.03057 1.35645v11.67708c-.00002.5272-.00003.982.03057 1.3565.0323.3954.10362.7886.29641 1.167.28762.5645.74656 1.0234 1.31105 1.311.37838.1928.7716.2641 1.16694.2964.37457.0306.82933.0306 1.35647.0306h11.67716c.5271 0 .9819 0 1.3564-.0306.3954-.0323.7886-.1036 1.167-.2964.5645-.2876 1.0234-.7465 1.311-1.311.1928-.3784.2641-.7716.2964-1.167.0306-.3745.0306-.8293.0306-1.3564v-11.67716c0-.52714 0-.9819-.0306-1.35647-.0323-.39534-.1036-.78856-.2964-1.16694-.2876-.56449-.7465-1.02343-1.311-1.31105-.3784-.19279-.7716-.26411-1.167-.29641-.3745-.0306-.8293-.03059-1.3565-.03057zm-4.1069 11.1947.9174 2.7523c.1185.3555.1778.5333.1422.6748-.0311.1238-.1084.2311-.216.2998-.123.0784-.3104.0784-.6851.0784h-3.7802c-.3747 0-.56207 0-.68506-.0784-.10766-.0687-.18497-.176-.21607-.2998-.03553-.1415.02372-.3193.14223-.6748l.9174-2.7523c.0706-.2116.1059-.3175.104-.404-.0019-.0911-.0141-.1388-.056-.2196-.0399-.0769-.1464-.1761-.35959-.3744-.58862-.5477-.95681-1.3292-.95681-2.1967 0-1.65685 1.3431-3 3-3s3 1.34315 3 3c0 .8675-.3682 1.649-.9568 2.1967-.2132.1983-.3197.2975-.3596.3744-.0419.0808-.0541.1285-.056.2196-.0019.0865.0334.1924.104.404z" fill="#801ed7" fill-rule="evenodd"/></svg>

<svg width="24" height="24" viewBox="0 0 24 24" fill="none" xmlns="http://www.w3.org/2000/svg">
<path fill-rule="evenodd" clip-rule="evenodd" d="M17.8385 2H6.16146C5.63433 1.99998 5.17954 1.99997 4.80497 2.03057C4.40963 2.06287 4.01641 2.13419 3.63803 2.32698C3.07354 2.6146 2.6146 3.07354 2.32698 3.63803C2.13419 4.01641 2.06287 4.40963 2.03057 4.80497C1.99997 5.17954 1.99998 5.63429 2 6.16142V17.8385C1.99998 18.3657 1.99997 18.8205 2.03057 19.195C2.06287 19.5904 2.13419 19.9836 2.32698 20.362C2.6146 20.9265 3.07354 21.3854 3.63803 21.673C4.01641 21.8658 4.40963 21.9371 4.80497 21.9694C5.17954 22 5.6343 22 6.16144 22H17.8386C18.3657 22 18.8205 22 19.195 21.9694C19.5904 21.9371 19.9836 21.8658 20.362 21.673C20.9265 21.3854 21.3854 20.9265 21.673 20.362C21.8658 19.9836 21.9371 19.5904 21.9694 19.195C22 18.8205 22 18.3657 22 17.8386V6.16144C22 5.6343 22 5.17954 21.9694 4.80497C21.9371 4.40963 21.8658 4.01641 21.673 3.63803C21.3854 3.07354 20.9265 2.6146 20.362 2.32698C19.9836 2.13419 19.5904 2.06287 19.195 2.03057C18.8205 1.99997 18.3657 1.99998 17.8385 2ZM13.7316 13.1947L14.649 15.947C14.7675 16.3025 14.8268 16.4803 14.7912 16.6218C14.7601 16.7456 14.6828 16.8529 14.5752 16.9216C14.4522 17 14.2648 17 13.8901 17H10.1099C9.7352 17 9.54783 17 9.42484 16.9216C9.31718 16.8529 9.23987 16.7456 9.20877 16.6218C9.17324 16.4803 9.23249 16.3025 9.351 15.947L10.2684 13.1947C10.339 12.9831 10.3743 12.8772 10.3724 12.7907C10.3705 12.6996 10.3583 12.6519 10.3164 12.5711C10.2765 12.4942 10.17 12.395 9.95681 12.1967C9.36819 11.649 9 10.8675 9 10C9 8.34315 10.3431 7 12 7C13.6569 7 15 8.34315 15 10C15 10.8675 14.6318 11.649 14.0432 12.1967C13.83 12.395 13.7235 12.4942 13.6836 12.5711C13.6417 12.6519 13.6295 12.6996 13.6276 12.7907C13.6257 12.8772 13.661 12.9831 13.7316 13.1947Z" fill="#801ED7"/>
</svg>
